modules/hawcons-stroke/icons/icon-57-air-sock.svg

<?xml version="1.0" encoding="UTF-8" standalone="no"?>
<svg width="32px" height="32px" viewBox="0 0 32 32" version="1.1" xmlns="http://www.w3.org/2000/svg" xmlns:xlink="http://www.w3.org/1999/xlink" xmlns:sketch="http://www.bohemiancoding.com/sketch/ns">
    <!-- Generator: Sketch 3.0.3 (7891) - http://www.bohemiancoding.com/sketch -->
    <title>icon 57 air sock</title>
    <desc>Created with Sketch.</desc>
    <defs></defs>
    <g id="Page-1" stroke="none" stroke-width="1" fill="none" fill-rule="evenodd" sketch:type="MSPage">
        <g id="icon-57-air-sock" sketch:type="MSArtboardGroup" fill="#929292">
            <path d="M23,11.4000711 L21,11.6143763 L21,11.6143763 L21,6.37980742 L23,6.59375359 L23,11.4000711 L23,11.4000711 Z M24,11.2929185 L26,11.0786133 L26,6.91467285 L24,6.70072668 L24,11.2929185 L24,11.2929185 Z M20,11.7215289 L17,12.0429867 L17,12.0429867 L17,5.95191507 L20,6.27283433 L20,11.7215289 L20,11.7215289 L20,11.7215289 Z M16,12.1501393 L13,12.4715971 L13,5.52402272 L16,5.84494198 L16,12.1501393 L16,12.1501393 L16,12.1501393 Z M12,12.5787497 L9,12.9002075 L9,5.09613037 L12,5.41704963 L12,12.5787497 L12,12.5787497 Z M6.5,4 C6.22385763,4 6,4.21612644 6,4.49938448 L6,28.5006155 C6,28.776418 6.23193359,29 6.5,29 C6.77614237,29 7,28.7838736 7,28.5006155 L7,4.49938448 C7,4.22358205 6.76806641,4 6.5,4 L6.5,4 Z M8,4 L8,14 L27,12 L27,6 L8,4 L8,4 Z" id="air-sock" sketch:type="MSShapeGroup"></path>
        </g>
    </g>
</svg>

<svg width="32" height="32" xmlns="http://www.w3.org/2000/svg"><path d="M23 11.4l-2 .214V6.38l2 .214V11.4zm1-.107l2-.214V6.915L24 6.7v4.592zm-4 .429l-3 .321V5.952l3 .32v5.45zm-4 .428l-3 .322V5.524l3 .32v6.306zm-4 .429L9 12.9V5.096l3 .321v7.162zM6.5 4c-.276 0-.5.216-.5.5v24c0 .276.232.5.5.5.276 0 .5-.216.5-.5v-24c0-.276-.232-.5-.5-.5zM8 4v10l19-2V6L8 4z" fill="#929292" fill-rule="evenodd"/></svg>
